src/assets/icon/Icon=calendar.svg

<svg width="16" height="16" viewBox="0 0 16 16" fill="none" xmlns="http://www.w3.org/2000/svg">
<path d="M11.0778 0C11.3807 0 11.6712 0.120408 11.8853 0.334735C12.0995 0.549062 12.2198 0.839753 12.2198 1.14286V1.37143H14.8465C14.9975 1.36992 15.1472 1.39836 15.2871 1.45512C15.427 1.51188 15.5542 1.59582 15.6615 1.7021C15.7687 1.80837 15.8539 1.93487 15.912 2.07428C15.9701 2.21369 16 2.36324 16 2.51429V13.4857C16 14.1525 15.7353 14.7921 15.2641 15.2636C14.7929 15.7351 14.1539 16 13.4875 16H2.50107C1.84064 15.997 1.20793 15.7339 0.739858 15.2677C0.271787 14.8014 0.00599732 14.1695 0 13.5086V2.51429C0 2.21118 0.120322 1.92049 0.334496 1.70616C0.54867 1.49184 0.839153 1.37143 1.14204 1.37143H3.75732V1.14286C3.75732 0.839753 3.87764 0.549062 4.09181 0.334735C4.30599 0.120408 4.59647 0 4.89936 0C5.20225 0 5.49273 0.120408 5.7069 0.334735C5.92108 0.549062 6.0414 0.839753 6.0414 1.14286V1.37143H9.93576V1.14286C9.93576 0.839753 10.0561 0.549062 10.2703 0.334735C10.4844 0.120408 10.7749 0 11.0778 0ZM13.7045 8H2.27266V13.4857C2.27266 13.6114 2.37545 13.7143 2.50107 13.7143H13.4875C13.5423 13.7118 13.5944 13.6897 13.6343 13.6519C13.6741 13.6141 13.6991 13.5632 13.7045 13.5086V8ZM11.9914 9.14286C12.1429 9.14286 12.2881 9.20306 12.3952 9.31022C12.5023 9.41739 12.5625 9.56273 12.5625 9.71429V12C12.5625 12.1516 12.5023 12.2969 12.3952 12.4041C12.2881 12.5112 12.1429 12.5714 11.9914 12.5714H9.70735C9.55591 12.5714 9.41067 12.5112 9.30358 12.4041C9.19649 12.2969 9.13633 12.1516 9.13633 12V9.71429C9.13633 9.56273 9.19649 9.41739 9.30358 9.31022C9.41067 9.20306 9.55591 9.14286 9.70735 9.14286H11.9914ZM3.7459 3.65714H2.28408V5.71429H13.7045V3.65714H12.2313V3.88571C12.2313 4.18882 12.1109 4.47951 11.8968 4.69384C11.6826 4.90816 11.3921 5.02857 11.0892 5.02857C10.7863 5.02857 10.4959 4.90816 10.2817 4.69384C10.0675 4.47951 9.94718 4.18882 9.94718 3.88571V3.65714H6.02998V3.88571C6.02998 4.18882 5.90966 4.47951 5.69548 4.69384C5.48131 4.90816 5.19083 5.02857 4.88794 5.02857C4.58505 5.02857 4.29457 4.90816 4.08039 4.69384C3.86622 4.47951 3.7459 4.18882 3.7459 3.88571V3.65714Z" fill="black"/>
</svg>

<svg xmlns="http://www.w3.org/2000/svg" width="16" height="16" fill="none" viewBox="0 0 16 16"><path fill="#000" d="M11.078 0a1.141 1.141 0 0 1 1.142 1.143v.228h2.627A1.141 1.141 0 0 1 16 2.514v10.972A2.515 2.515 0 0 1 13.488 16H2.5A2.512 2.512 0 0 1 0 13.509V2.514a1.143 1.143 0 0 1 1.142-1.143h2.615v-.228a1.143 1.143 0 1 1 2.284 0v.228h3.895v-.228A1.143 1.143 0 0 1 11.078 0zm2.627 8H2.272v5.486a.23.23 0 0 0 .228.228h10.986a.229.229 0 0 0 .217-.205V8zM11.99 9.143a.57.57 0 0 1 .572.571V12a.572.572 0 0 1-.572.571H9.707a.571.571 0 0 1-.57-.571V9.714a.572.572 0 0 1 .57-.571h2.284zM3.746 3.657H2.284v2.057h11.42V3.657h-1.473v.229a1.144 1.144 0 0 1-1.95.808 1.143 1.143 0 0 1-.334-.808v-.229H6.03v.229a1.143 1.143 0 1 1-2.284 0v-.229z"/></svg>
